public/images/present-alt.svg

<svg width="64" height="64" viewBox="0 0 64 64" fill="none" xmlns="http://www.w3.org/2000/svg">
<g opacity="0.5">
<path opacity="0.5" fill-rule="evenodd" clip-rule="evenodd" d="M25.994 20.559C25.422 19.556 24.114 19.534 23.612 20.519C23.4355 20.8841 23.3987 21.3013 23.5087 21.6917C23.6187 22.0821 23.8678 22.4187 24.209 22.638L28.702 25.378L27.994 24.067L25.994 20.559ZM20.399 18.416C22.224 14.834 26.984 14.914 29.063 18.562L31.088 22.114L35.175 29.688H28.919C28.587 29.688 28.255 29.593 27.958 29.411L22.569 26.125C20.024 24.573 19.041 21.081 20.399 18.416Z" fill="#8FD945"/>
<path opacity="0.5" fill-rule="evenodd" clip-rule="evenodd" d="M38.038 20.559C38.61 19.556 39.918 19.534 40.42 20.519C40.5966 20.8841 40.6333 21.3013 40.5233 21.6917C40.4133 22.0821 40.1642 22.4187 39.823 22.638L35.33 25.378L36.038 24.067L38.038 20.559ZM43.633 18.416C41.808 14.834 37.048 14.914 34.969 18.562L32.944 22.114L28.857 29.688H35.113C35.4528 29.6862 35.7854 29.5903 36.074 29.411L41.463 26.125C44.008 24.573 44.991 21.081 43.633 18.416ZM17.585 38.4H46.347V51.535C46.347 52.214 46.0773 52.8651 45.5972 53.3452C45.1171 53.8253 44.466 54.095 43.787 54.095H20.145C19.4661 54.095 18.8149 53.8253 18.3348 53.3452C17.8547 52.8651 17.585 52.214 17.585 51.535V38.4ZM48.907 35.84V51.535C48.907 52.8929 48.3676 54.1952 47.4074 55.1554C46.4472 56.1156 45.1449 56.655 43.787 56.655H20.145C18.7871 56.655 17.4848 56.1156 16.5246 55.1554C15.5645 54.1952 15.025 52.8929 15.025 51.535V35.84H48.907Z" fill="#8FD945"/>
</g>
<path opacity="0.5" d="M34.824 38.4H29.177V56.64H34.824V38.4Z" fill="#8FD945"/>
<path opacity="0.5" d="M15.059 41.92V48.32H48.941V41.92H15.059Z" fill="#8FD945"/>
<path opacity="0.5" fill-rule="evenodd" clip-rule="evenodd" d="M16.64 29.687H47.36C47.6995 29.687 48.025 29.8219 48.2651 30.0619C48.5051 30.3019 48.64 30.6275 48.64 30.967V34.487C48.64 34.8265 48.5051 35.152 48.2651 35.3921C48.025 35.6321 47.6995 35.767 47.36 35.767H16.64C16.3005 35.767 15.9749 35.6321 15.7349 35.3921C15.4948 35.152 15.36 34.8265 15.36 34.487V30.967C15.36 30.6275 15.4948 30.3019 15.7349 30.0619C15.9749 29.8219 16.3005 29.687 16.64 29.687ZM47.36 27.127C47.8643 27.127 48.3636 27.2263 48.8295 27.4193C49.2954 27.6123 49.7187 27.8951 50.0753 28.2517C50.4319 28.6083 50.7147 29.0316 50.9077 29.4975C51.1007 29.9634 51.2 30.4627 51.2 30.967V34.487C51.2 34.9913 51.1007 35.4906 50.9077 35.9565C50.7147 36.4224 50.4319 36.8457 50.0753 37.2023C49.7187 37.5589 49.2954 37.8417 48.8295 38.0347C48.3636 38.2277 47.8643 38.327 47.36 38.327H16.64C15.6216 38.327 14.6448 37.9224 13.9247 37.2023C13.2046 36.4821 12.8 35.5054 12.8 34.487V30.967C12.8 29.9486 13.2046 28.9718 13.9247 28.2517C14.6448 27.5316 15.6216 27.127 16.64 27.127H47.36Z" fill="#8FD945"/>
<path opacity="0.5" d="M34.824 27.2H29.177V38.4H34.824V27.2Z" fill="#8FD945"/>
<path opacity="0.5" d="M51.859 19.323L51.957 18.957C52.095 18.443 52.313 18.04 52.611 17.748C52.9555 17.4366 53.339 17.1714 53.752 16.959C54.1397 16.7423 54.5424 16.5535 54.957 16.394C55.34 16.249 55.669 16.075 55.943 15.873C56.217 15.671 56.401 15.397 56.494 15.05C56.628 14.549 56.543 14.148 56.239 13.846C55.951 13.535 55.395 13.269 54.573 13.049C54.0329 12.9042 53.4761 12.8312 52.917 12.832C52.356 12.819 51.861 12.866 51.434 12.972L52.131 10.371C52.668 10.267 53.277 10.231 53.957 10.261C54.6997 10.3033 55.4358 10.4243 56.153 10.622C57.643 11.021 58.692 11.654 59.3 12.519C59.911 13.371 60.066 14.363 59.763 15.493C59.57 16.212 59.266 16.757 58.85 17.128C58.438 17.486 57.887 17.82 57.198 18.131L55.724 18.851C55.327 19.048 55.063 19.39 54.933 19.878L54.866 20.128L51.86 19.323H51.859ZM50.81 22.698L51.409 20.463L54.665 21.336L54.066 23.571L50.81 22.699V22.698ZM6.97198 44.018L6.90998 43.787C6.82298 43.462 6.81498 43.173 6.88598 42.919C6.96498 42.663 7.08998 42.399 7.26098 42.127C7.41798 41.867 7.57798 41.637 7.74198 41.437C7.90598 41.237 8.03098 41.038 8.11698 40.84C8.20366 40.643 8.21852 40.4218 8.15898 40.215C8.07398 39.898 7.90098 39.705 7.63798 39.636C7.38198 39.557 6.99398 39.587 6.47398 39.726C6.13259 39.8176 5.80476 39.9537 5.49898 40.131C5.22016 40.2782 4.96194 40.4614 4.73098 40.676L4.28998 39.03C4.55098 38.803 4.87298 38.591 5.25498 38.393C5.64498 38.193 6.08398 38.027 6.57098 37.897C7.51298 37.645 8.28698 37.659 8.89398 37.941C9.49798 38.214 9.89598 38.708 10.088 39.423C10.21 39.878 10.215 40.272 10.105 40.607C9.99198 40.933 9.79598 41.29 9.51698 41.678L8.93798 42.538C8.78298 42.771 8.74698 43.042 8.82898 43.351L8.87098 43.509L6.97098 44.018H6.97198ZM7.46398 46.197L7.08498 44.784L9.14398 44.232L9.52298 45.645L7.46398 46.197ZM11.755 18.813L11.672 18.504C11.556 18.07 11.545 17.684 11.64 17.344C11.7604 16.9711 11.9288 16.6155 12.141 16.286C12.333 15.9639 12.5475 15.6558 12.783 15.364C13.002 15.096 13.169 14.83 13.284 14.567C13.3991 14.3039 13.4186 14.0089 13.339 13.733C13.226 13.31 12.994 13.052 12.644 12.96C12.302 12.854 11.784 12.894 11.089 13.08C10.6331 13.2023 10.1953 13.3842 9.78698 13.621C9.37098 13.849 9.02898 14.091 8.76098 14.349L8.17198 12.152C8.52098 11.849 8.95098 11.566 9.46098 11.301C9.98198 11.033 10.568 10.812 11.219 10.638C12.477 10.301 13.511 10.32 14.321 10.696C15.128 11.061 15.659 11.721 15.915 12.675C16.078 13.282 16.085 13.809 15.938 14.256C15.787 14.692 15.526 15.169 15.153 15.687L14.38 16.836C14.173 17.147 14.124 17.509 14.235 17.921L14.292 18.133L11.754 18.813H11.755ZM12.413 21.723L11.907 19.836L14.657 19.099L15.163 20.986L12.413 21.723Z" fill="#D6CAA0"/>
</svg>

<svg xmlns="http://www.w3.org/2000/svg" xmlns:v="https://vecta.io/nano" width="64" height="64" fill="none" opacity=".5"><g fill="#7645d9" fill-rule="evenodd"><path d="M25.994 20.559c-.572-1.003-1.88-1.025-2.382-.04a1.66 1.66 0 0 0 .597 2.119l4.493 2.74-.708-1.311-2-3.508zm-5.595-2.143c1.825-3.582 6.585-3.502 8.664.146l2.025 3.552 4.087 7.574h-6.256c-.332 0-.664-.095-.961-.277l-5.389-3.286c-2.545-1.552-3.528-5.044-2.17-7.709z"/><path d="M38.038 20.559c.572-1.003 1.88-1.025 2.382-.04a1.66 1.66 0 0 1-.597 2.119l-4.493 2.74.708-1.311 2-3.508zm5.595-2.143c-1.825-3.582-6.585-3.502-8.664.146l-2.025 3.552-4.087 7.574h6.256a1.84 1.84 0 0 0 .961-.277l5.389-3.286c2.545-1.552 3.528-5.044 2.17-7.709zM17.585 38.4h28.762v13.135a2.56 2.56 0 0 1-2.56 2.56H20.145a2.56 2.56 0 0 1-2.56-2.56V38.4zm31.322-2.56v15.695a5.12 5.12 0 0 1-5.12 5.12H20.145a5.12 5.12 0 0 1-5.12-5.12V35.84h33.882z"/></g><path fill="#7645d9" d="M34.824 38.4h-5.647v18.24h5.647V38.4z"/><path fill="#7645d9" d="M15.059 41.92v6.4h33.882v-6.4H15.059z"/><path fill="#7645d9" fill-rule="evenodd" d="M16.64 29.687h30.72a1.28 1.28 0 0 1 1.28 1.28v3.52a1.28 1.28 0 0 1-1.28 1.28H16.64a1.28 1.28 0 0 1-1.28-1.28v-3.52a1.28 1.28 0 0 1 1.28-1.28zm30.72-2.56a3.84 3.84 0 0 1 3.84 3.84v3.52a3.84 3.84 0 0 1-3.84 3.84H16.64a3.84 3.84 0 0 1-3.84-3.84v-3.52a3.84 3.84 0 0 1 3.84-3.84h30.72z"/><path fill="#7645d9" d="M34.824 27.2h-5.647v11.2h5.647V27.2z"/><path fill="#aea0d6" d="M51.859 19.323l.098-.366c.138-.514.356-.917.654-1.209a5.35 5.35 0 0 1 1.141-.789 9.36 9.36 0 0 1 1.205-.565c.383-.145.712-.319.986-.521s.458-.476.551-.823c.134-.501.049-.902-.255-1.204-.288-.311-.844-.577-1.666-.797a6.36 6.36 0 0 0-1.656-.217c-.561-.013-1.056.034-1.483.14l.697-2.601c.537-.104 1.146-.14 1.826-.11a10.51 10.51 0 0 1 2.196.361c1.49.399 2.539 1.032 3.147 1.897.611.852.766 1.844.463 2.974-.193.719-.497 1.264-.913 1.635-.412.358-.963.692-1.652 1.003l-1.474.72c-.397.197-.661.539-.791 1.027l-.067.25-3.006-.805zm-1.049 3.375l.599-2.235 3.256.873-.599 2.235-3.256-.872zM6.972 44.018l-.062-.231c-.087-.325-.095-.614-.024-.868.079-.256.204-.52.375-.792.157-.26.317-.49.481-.69s.289-.399.375-.597a.92.92 0 0 0 .042-.625c-.085-.317-.258-.51-.521-.579-.256-.079-.644-.049-1.164.09a4.02 4.02 0 0 0-.975.405 3.59 3.59 0 0 0-.768.545L4.29 39.03c.261-.227.583-.439.965-.637.39-.2.829-.366 1.316-.496.942-.252 1.716-.238 2.323.044.604.273 1.002.767 1.194 1.482.122.455.127.849.017 1.184-.113.326-.309.683-.588 1.071l-.579.86c-.155.233-.191.504-.109.813l.042.158-1.9.509zm.492 2.179l-.379-1.413 2.059-.552.379 1.413-2.059.552zm4.291-27.384l-.083-.309c-.116-.434-.127-.82-.032-1.16a4.52 4.52 0 0 1 .501-1.058 7.95 7.95 0 0 1 .642-.922c.219-.268.386-.534.501-.797a1.23 1.23 0 0 0 .055-.834c-.113-.423-.345-.681-.695-.773-.342-.106-.86-.066-1.555.12a5.37 5.37 0 0 0-1.302.541c-.416.228-.758.47-1.026.728l-.589-2.197c.349-.303.779-.586 1.289-.851.521-.268 1.107-.489 1.758-.663 1.258-.337 2.292-.318 3.102.058.807.365 1.338 1.025 1.594 1.979.163.607.17 1.134.023 1.581-.151.436-.412.913-.785 1.431l-.773 1.149c-.207.311-.256.673-.145 1.085l.057.212-2.538.68zm.658 2.91l-.506-1.887 2.75-.737.506 1.887-2.75.737z"/></svg>
